public/TLDIconL.svg

<svg xmlns="http://www.w3.org/2000/svg" width="800" height="800" fill="none" xmlns:v="https://vecta.io/nano"><rect width="800" height="800" rx="120" fill="url(#A)"/><path d="M96.256 405.239v-5.966h52.734v5.966h-23.047V472h-6.64v-66.761H96.256zM163.94 472v-72.727h6.641v33.345h41.264v-33.345h6.641V472h-6.641v-33.416h-41.264V472h-6.641zm73.828 0v-72.727h42.188v5.966h-35.547v27.379h33.31v5.966h-33.31v27.45h36.257V472h-42.898zM100.659 593v-72.727h6.641v66.761h34.659V593h-41.3zm56.25 0v-72.727h42.188v5.966H163.55v27.379h33.309v5.966H163.55v27.45h36.257V593h-42.898zm59.375 0v-72.727h42.081v5.966h-35.44v27.379h32.137v5.966h-32.137V593h-6.641zm54.19-66.761v-5.966h52.735v5.966h-23.047V593h-6.641v-66.761h-23.047zM121.966 714h-21.307v-72.727h22.585c6.937 0 12.867 1.444 17.792 4.332 4.947 2.888 8.735 7.031 11.363 12.429s3.942 11.873 3.942 19.425c0 7.623-1.35 14.169-4.048 19.638-2.676 5.445-6.582 9.623-11.719 12.535-5.114 2.912-11.316 4.368-18.608 4.368zm-14.666-5.966h14.275c6.25 0 11.482-1.231 15.696-3.693s7.375-5.978 9.482-10.547 3.16-10.014 3.16-16.335c-.023-6.274-1.065-11.672-3.125-16.193-2.036-4.522-5.066-7.99-9.091-10.405-4.001-2.415-8.948-3.622-14.843-3.622H107.3v60.795zM172.436 714v-72.727h23.473c5.161 0 9.47.935 12.927 2.805 3.48 1.847 6.096 4.415 7.848 7.706 1.775 3.267 2.663 7.02 2.663 11.257s-.888 7.978-2.663 11.222c-1.752 3.243-4.356 5.776-7.813 7.599s-7.741 2.735-12.855 2.735h-19.993v-6.073h19.815c3.788 0 6.937-.627 9.446-1.882 2.534-1.255 4.416-3.042 5.647-5.362 1.254-2.32 1.882-5.066 1.882-8.239s-.628-5.942-1.882-8.309c-1.255-2.392-3.149-4.238-5.682-5.54-2.51-1.302-5.682-1.953-9.517-1.953h-16.655V714h-6.641zm32.067-32.812L222.401 714h-7.671l-17.72-32.812h7.493zM235.629 714h-6.96l26.456-72.727h7.102L288.683 714h-6.96l-22.799-64.098h-.497L235.629 714zm5.007-27.876h36.08v5.965h-36.08v-5.965zM308.125 714l-19.922-72.727h6.748l16.477 62.535h.568l16.477-62.535h7.671l16.477 62.535h.568l16.478-62.535h6.782L356.527 714h-7.102l-16.868-61.683h-.461L315.228 714h-7.103zm80.327 0v-72.727h42.188v5.966h-35.547v27.379h33.309v5.966h-33.309v27.45h36.257V714h-42.898zm59.375 0v-72.727H471.3c5.161 0 9.47.935 12.926 2.805 3.48 1.847 6.096 4.415 7.848 7.706 1.776 3.267 2.664 7.02 2.664 11.257s-.888 7.978-2.664 11.222c-1.752 3.243-4.356 5.776-7.812 7.599s-7.742 2.735-12.855 2.735h-19.993v-6.073h19.815c3.788 0 6.937-.627 9.446-1.882 2.533-1.255 4.415-3.042 5.646-5.362 1.255-2.32 1.882-5.066 1.882-8.239s-.627-5.942-1.882-8.309c-1.254-2.392-3.148-4.238-5.681-5.54-2.51-1.302-5.682-1.953-9.517-1.953h-16.655V714h-6.641zm32.067-32.812L497.792 714h-7.671l-17.72-32.812h7.493z" fill="#1e1e1e"/><path d="M100 319.954c0-57.681 30.004-74.485 86.121-115.939C242.296 162.518 340.54 100 400 100s157.704 62.518 213.879 104.015C669.996 245.469 700 262.273 700 319.954v296.361c0 10.989-2.408 21.871-7.087 32.025s-11.537 19.378-20.182 27.149-18.909 13.935-30.205 18.141-23.403 6.37-35.629 6.37" stroke="#1e1e1e" stroke-width="30" stroke-linecap="round"/><defs><linearGradient id="A" x1="400" y1="0" x2="400" y2="800" gradientUnits="userSpaceOnUse"><stop offset=".082" stop-color="#b0d1e0"/><stop offset=".346" stop-color="#e0a8c8"/><stop offset=".447" stop-color="#d59ea8"/><stop offset=".779" stop-color="#815b91"/><stop offset=".827" stop-color="#785a92"/><stop offset=".928" stop-color="#665994"/><stop offset=".986" stop-color="#61639d"/></linearGradient></defs></svg>

<svg width="800" height="800" viewBox="0 0 800 800" fill="none" xmlns="http://www.w3.org/2000/svg">
<rect width="800" height="800" rx="120" fill="url(#paint0_linear_3_118)"/>
<path d="M96.2557 405.239V399.273H148.99V405.239H125.943V472H119.303V405.239H96.2557ZM163.94 472V399.273H170.581V432.618H211.845V399.273H218.486V472H211.845V438.584H170.581V472H163.94ZM237.768 472V399.273H279.956V405.239H244.409V432.618H277.719V438.584H244.409V466.034H280.666V472H237.768ZM100.659 593V520.273H107.3V587.034H141.959V593H100.659ZM156.909 593V520.273H199.097V526.239H163.55V553.618H196.859V559.584H163.55V587.034H199.807V593H156.909ZM216.284 593V520.273H258.365V526.239H222.925V553.618H255.062V559.584H222.925V593H216.284ZM270.474 526.239V520.273H323.209V526.239H300.162V593H293.521V526.239H270.474ZM121.966 714H100.659V641.273H123.244C130.181 641.273 136.111 642.717 141.036 645.605C145.983 648.493 149.771 652.636 152.399 658.034C155.027 663.432 156.341 669.907 156.341 677.459C156.341 685.082 154.991 691.628 152.293 697.097C149.617 702.542 145.711 706.72 140.574 709.632C135.46 712.544 129.258 714 121.966 714ZM107.3 708.034H121.575C127.825 708.034 133.057 706.803 137.271 704.341C141.485 701.879 144.646 698.363 146.753 693.794C148.86 689.225 149.913 683.78 149.913 677.459C149.89 671.185 148.848 665.787 146.788 661.266C144.752 656.744 141.722 653.276 137.697 650.861C133.696 648.446 128.749 647.239 122.854 647.239H107.3V708.034ZM172.436 714V641.273H195.909C201.07 641.273 205.379 642.208 208.836 644.078C212.316 645.925 214.932 648.493 216.684 651.784C218.459 655.051 219.347 658.804 219.347 663.041C219.347 667.279 218.459 671.019 216.684 674.263C214.932 677.506 212.328 680.039 208.871 681.862C205.415 683.685 201.13 684.597 196.016 684.597H176.023V678.524H195.838C199.626 678.524 202.775 677.897 205.284 676.642C207.818 675.387 209.7 673.6 210.931 671.28C212.185 668.96 212.813 666.214 212.813 663.041C212.813 659.869 212.185 657.099 210.931 654.732C209.676 652.34 207.782 650.494 205.249 649.192C202.739 647.89 199.567 647.239 195.732 647.239H179.077V714H172.436ZM204.503 681.188L222.401 714H214.73L197.01 681.188H204.503ZM235.629 714H228.669L255.125 641.273H262.227L288.683 714H281.723L258.924 649.902H258.427L235.629 714ZM240.636 686.124H276.716V692.089H240.636V686.124ZM308.125 714L288.203 641.273H294.951L311.428 703.808H311.996L328.473 641.273H336.144L352.621 703.808H353.189L369.667 641.273H376.449L356.527 714H349.425L332.557 652.317H332.096L315.228 714H308.125ZM388.452 714V641.273H430.64V647.239H395.093V674.618H428.402V680.584H395.093V708.034H431.35V714H388.452ZM447.827 714V641.273H471.3C476.461 641.273 480.77 642.208 484.226 644.078C487.706 645.925 490.322 648.493 492.074 651.784C493.85 655.051 494.738 658.804 494.738 663.041C494.738 667.279 493.85 671.019 492.074 674.263C490.322 677.506 487.718 680.039 484.262 681.862C480.805 683.685 476.52 684.597 471.407 684.597H451.414V678.524H471.229C475.017 678.524 478.166 677.897 480.675 676.642C483.208 675.387 485.09 673.6 486.321 671.28C487.576 668.96 488.203 666.214 488.203 663.041C488.203 659.869 487.576 657.099 486.321 654.732C485.067 652.34 483.173 650.494 480.64 649.192C478.13 647.89 474.958 647.239 471.123 647.239H454.468V714H447.827ZM479.894 681.188L497.792 714H490.121L472.401 681.188H479.894Z" fill="#1E1E1E"/>
<path d="M100 319.954C100 262.273 130.004 245.469 186.121 204.015C242.296 162.518 340.54 100 400 100C459.46 100 557.704 162.518 613.879 204.015C669.996 245.469 700 262.273 700 319.954V616.315C700 627.304 697.592 638.186 692.913 648.34C688.234 658.493 681.376 667.718 672.731 675.489C664.085 683.26 653.822 689.424 642.526 693.63C631.23 697.835 619.123 700 606.897 700" stroke="#1E1E1E" stroke-width="30" stroke-linecap="round"/>
<defs>
<linearGradient id="paint0_linear_3_118" x1="400" y1="0" x2="400" y2="800" gradientUnits="userSpaceOnUse">
<stop offset="0.0817308" stop-color="#B0D1E0"/>
<stop offset="0.346154" stop-color="#E0A8C8"/>
<stop offset="0.447115" stop-color="#D59EA8"/>
<stop offset="0.778846" stop-color="#815B91"/>
<stop offset="0.826923" stop-color="#785A92"/>
<stop offset="0.927885" stop-color="#665994"/>
<stop offset="0.985577" stop-color="#61639D"/>
</linearGradient>
</defs>
</svg>
